X:207331824247825
T:3-7-5-9-4-9-11-10-4-12-7-9-2-2-8-6
%%setfont-1 Courier-Bold 8
T:$1K.516f::32:157:113:50:153:86:147:123:66:20:150:166:112:49:89:93::$0
T:$1Perm. No.: 207331824247825$0
M:3/8
L:1/8
Q:1/8=111
%%staves [1 2]
V:1 clef=treble
V:2 clef=bass
K:C
%1
[V:1]|: Gce |\
[V:2]|: [E,2C,2]z |\
%2
[V:1] e/d/e/g/c'/g/ |\
[V:2] C,2z |\
%3
[V:1] fdB |\
[V:2] [B,2G,2]z |\
%4
[V:1] ce/c/G |\
[V:2] [G,2E,2]z |\
%5
[V:1] d/A/^f/d/a/f/ |\
[V:2] C,2z |\
%6
[V:1] dd/g/b |\
[V:2] [G,2B,,2]z |\
%7
[V:1] e/c'/b/g/a/^f/ \
[V:2] C,D,D,, \
%8a
[V:1]|1 [g2d2B2G2]z :|2
[V:2]|1 G,,G,/=F,/E,/D,/ :|2
%8b
[V:1] [g2d2B2G2]z |:\
[V:2] G,,B,/G,/^F,/E,/ |:\
%9
[V:1] ^faf |\
[V:2] A,^F,D, & D,D,C, |\
%10
[V:1] gb/d'/d |\
[V:2] B,,2z |\
%11
[V:1] [ecG]!trill!e2 |\
[V:2] C,/B,,/C,/D,/E,/^F,/ |\
%12
[V:1] d/b/g/d/B |\
[V:2] [B,2G,2]z |\
%13
[V:1] ecG |\
[V:2] [E,/C,/]G,/[E,/C,/]G,/[E,/C,/]G,/ |\
%14
[V:1] (ecG) |\
[V:2] [E,/C,/]G,/[E,/C,/]G,/[E,/C,/]G,/ |\
%15
[V:1] f/e/dg |\
[V:2] F,/E,/D,G, |\
%16
[V:1] c2z :|]
[V:2] C,G,,C,, :|]
